svg/female_condom_outline.svg

<?xml version="1.0" encoding="UTF-8" standalone="no"?>
<!-- Created with Inkscape (http://www.inkscape.org/) -->
<svg id="svg8" xmlns:rdf="http://www.w3.org/1999/02/22-rdf-syntax-ns#" xmlns="http://www.w3.org/2000/svg" xmlns:osb="http://www.openswatchbook.org/uri/2009/osb" height="48" width="48" version="1.1" xmlns:cc="http://creativecommons.org/ns#" viewBox="0 0 12.7 12.7" xmlns:dc="http://purl.org/dc/elements/1.1/">
 <title id="title4753">UIO-icon</title>
 <metadata id="metadata5">
  <rdf:RDF>
   <cc:Work rdf:about="">
    <dc:format>image/svg+xml</dc:format>
    <dc:type rdf:resource="http://purl.org/dc/dcmitype/StillImage"/>
    <dc:title>UIO-icon</dc:title>
    <dc:creator>
     <cc:Agent>
      <dc:title>Joaquín Urbano</dc:title>
     </cc:Agent>
    </dc:creator>
    <dc:rights>
     <cc:Agent>
      <dc:title>GPL</dc:title>
     </cc:Agent>
    </dc:rights>
   </cc:Work>
  </rdf:RDF>
 </metadata>
 <g id="layer1" transform="translate(0,-284.3)" fill="#333">
  <path id="path883" d="m37.035 3.9824c-1.6085 0.00026581-3.1656 0.56654-4.3984 1.5996l-0.001953-0.0019531-1.8245 1.5892c-6.342 6.8208-13.936 13.106-22.02 19.18l-1.3095 1.141c-2.2107 1.7582-3.5003 4.4274-3.5039 7.252-0.0002611 5.126 4.1552 9.2815 9.2812 9.2812 3.4361-0.002045 6.5899-1.9024 8.1973-4.9395l0.007813 0.005859c0.36477-0.52848 0.66026-0.8678 0.93296-1.3149 4.5291-7.4261 11.371-14.306 18.76-21.201 0.33796-0.31536 0.56792-0.77107 0.90848-1.0859l-0.005859-0.005859c1.1725-1.265 1.8246-2.9256 1.8262-4.6504-0.00026965-3.7828-3.0668-6.8493-6.8496-6.8496zm0 0.51172c3.5002 0.00020112 6.3377 2.8377 6.3379 6.3379 0.00087767 3.501-2.8369 6.3396-6.3379 6.3398-3.5018 0.00087796-6.3407-2.8381-6.3398-6.3398 0.00020106-3.501 2.8388-6.3388 6.3398-6.3379zm0 0.72461c-3.1005-0.00020297-5.6144 2.5128-5.6152 5.6133-0.00020291 3.1013 2.5139 5.6154 5.6152 5.6152 3.1005-0.00087566 5.6135-2.5147 5.6133-5.6152 0-3.0997-2.513-5.6124-5.613-5.6132zm0 0.50977c2.8186-0.000006423 5.1035 2.2849 5.1035 5.1035 0.00000642 2.8186-2.2849 5.1035-5.1035 5.1035-2.8186 0.00000642-5.1035-2.2849-5.1035-5.1035-0.00000642-2.8186 2.2849-5.1035 5.1035-5.1035zm-6.121 2.0293c-0.47974 0.95381-0.72988 2.0066-0.73047 3.0742-0.00080933 3.7843 3.0672 6.8524 6.8516 6.8516 1.0704-0.002701 2.1253-0.25622 3.0801-0.74023-6.545 6.2525-13.122 12.467-18.043 20.668 0.30534-0.92592 0.46287-1.8942 0.4668-2.8691 0.0002611-5.126-4.1552-9.2815-9.2812-9.2812-1.1772 0.002757-2.3431 0.22944-3.4355 0.66797 7.437-5.625 14.725-11.431 21.092-18.372zm-17.656 18.211c4.8456-0.00049342 8.7739 3.9278 8.7734 8.7734-0.00058532 4.8449-3.9286 8.772-8.7734 8.7715-4.8443-0.001-8.7711-3.928-8.7717-8.772 0.0025-2.607 1.1641-5.077 3.1699-6.742l0.0078125 0.007813 0.24414-0.21289c1.5329-1.182 3.4138-1.824 5.3498-1.826zm0 0.90625c-4.3451-0.0003448-7.8675 3.5221-7.8672 7.8672-0.0003448 4.3451 3.5221 7.8675 7.8672 7.8672 4.3451 0.0003448 7.8675-3.5221 7.8672-7.8672 0.0003448-4.3451-3.5221-7.8675-7.8672-7.8672zm0 0.51367c4.0614-0.0004928 7.354 3.2921 7.3535 7.3535-0.00058595 4.0607-3.2928 7.3521-7.3535 7.3516-4.0601-0.001-7.3512-3.292-7.3518-7.352-0.0004-4.06 3.2909-7.353 7.3518-7.353z" fill-rule="evenodd" transform="matrix(.26458 0 0 .26458 0 284.3)"/>
 </g>
</svg>

<svg width="48" height="48" viewBox="0 0 48 48" fill="none" xmlns="http://www.w3.org/2000/svg">
<path fill-rule="evenodd" clip-rule="evenodd" d="M37.0346 3.98243C35.4262 3.9827 33.8691 4.54896 32.6363 5.58201L32.6343 5.58006L30.8099 7.16924C24.4679 13.99 16.874 20.2751 8.79015 26.349L7.48066 27.49C5.26999 29.2482 3.98041 31.9173 3.97681 34.7419C3.97655 39.8678 8.13195 44.0233 13.2579 44.023C16.6939 44.0209 19.8477 42.1206 21.4551 39.0835L21.4629 39.0894C21.8277 38.5609 22.1232 38.2216 22.3958 37.7745C26.9249 30.3485 33.7667 23.4687 41.1556 16.5738C41.4936 16.2584 41.7235 15.8027 42.0641 15.4879L42.0582 15.482C43.2307 14.217 43.8828 12.5565 43.8844 10.8317C43.8841 7.04894 40.8176 3.98248 37.0349 3.98218L37.0346 3.98243ZM37.0346 4.49414C40.5348 4.49435 43.3723 7.33181 43.3725 10.832C43.3733 14.3329 40.5356 17.1715 37.0346 17.1717C33.5329 17.1726 30.694 14.3336 30.6949 10.832C30.6951 7.33101 33.5337 4.49324 37.0346 4.49414ZM37.0346 5.21875C33.9342 5.21854 31.4203 7.73151 31.4195 10.832C31.4193 13.9332 33.9334 16.4473 37.0346 16.4471C40.1351 16.4462 42.6481 13.9324 42.6479 10.832C42.6479 7.73231 40.1349 5.21965 37.0349 5.21885L37.0346 5.21875ZM37.0346 5.72851C39.8532 5.7285 42.1381 8.01338 42.1381 10.8319C42.1381 13.6505 39.8532 15.9354 37.0346 15.9354C34.2161 15.9354 31.9312 13.6505 31.9312 10.8319C31.9312 8.01338 34.2161 5.72851 37.0346 5.72851ZM30.9137 7.75778C30.434 8.71158 30.1839 9.76436 30.1833 10.8319C30.1825 14.6162 33.2504 17.6843 37.0348 17.6835C38.1052 17.6808 39.16 17.4272 40.1148 16.9432C33.5699 23.1957 26.993 29.4101 22.0721 37.611C22.3774 36.6851 22.5349 35.7168 22.5389 34.7419C22.5391 29.616 18.3837 25.4605 13.2578 25.4608C12.0806 25.4636 10.9147 25.6903 9.82232 26.1288C17.2592 20.5039 24.5471 14.6979 30.9141 7.75702L30.9137 7.75778ZM13.2579 25.9686C18.1035 25.9681 22.0317 29.8963 22.0312 34.7418C22.0306 39.5867 18.1027 43.5137 13.2579 43.5132C8.41371 43.5122 4.48695 39.5853 4.48635 34.7413C4.48885 32.1344 5.65044 29.6644 7.65621 27.9994L7.66403 28.0072L7.90816 27.7944C9.44104 26.6124 11.3219 25.9704 13.2579 25.9684V25.9686ZM13.2579 26.8748C8.9129 26.8744 5.39054 30.3968 5.39084 34.7419C5.3905 39.0869 8.9129 42.6093 13.2579 42.609C17.603 42.6093 21.1253 39.0869 21.125 34.7419C21.1254 30.3968 17.603 26.8745 13.2579 26.8748ZM13.2579 27.3885C17.3193 27.388 20.6119 30.6805 20.6114 34.7419C20.6108 38.8025 17.3186 42.0939 13.2579 42.0934C9.1979 42.0924 5.90684 38.8014 5.90624 34.7415C5.90584 30.6815 9.19709 27.3886 13.2579 27.3886V27.3885Z" fill="#333333"/>
</svg>
